X:992
T:Reel 992
M:4/4
K:Dmaj
L:1/8
 (3ABc |d2FG Adcd|BdBA EFEG|FEFG AGFE| (3EEE FG E2de|Fddc dfed|cdBA AFDE|FAFD EDEF|DFAd D2|de|fdad fdad|edcd efge|fdad fdad|BABc d2 (3ABc |defg afdf|edcd efge| (3fga ec dBcA|Bdce dBAG|
